X:4
T:4. Le jardin du faune 
N:from lieuxc_musique4.mid
Z:Eric Forgeot - http://anamnese.online.fr
M:4/4
L:1/8
Q:1/4=120
% Last note suggests Locrian mode tune
K:C % 0 sharps
V:1
K:C treble+8 
%%MIDI ratio 3 1
%%MIDI transpose +0
%%MIDI program 0
B2 ed B2 G2 | A3/2 c < B c/2 B2 E2 | A2 A3/2 c < d d < B A/2 | cB A2 B2 G2 :|
|: B2 ed B2 B2 | cB A2 E2 BA | G2 cB A2 A3/2B/2 | cB B2 AB G2 :|
|: B2 ed B2 G2 | A3/2 c < B c/2 B2 E2 | A2 A3/2 c < d d < B A/2 | cB A2 B2 G2 :|
B2 ed B2 G2 | A3/2 c < B c/2 B2 E2 | A2 A3/2 c < d d < B A/2 | cB A2 B2 G2 |
B2 ed B2 B2 | cB A2 E2 BA | G2 cB A2 A3/2B/2 | cB B2 AB G2 |]
V:2
K:C treble-8 
%%MIDI program 0
%%MIDI transpose +0
E4 E4 | C2 E2 C4 | D4 D3-D/2C/2 | E4-E>C E2 :|
|: E4 E4 | C4 C4 | G,2 A,2 A,4 | B,4 B,4 :|
E4 E4 | C2 E2 C4 | D4 D3-D/2 C/2 | E4- E3/2 C/2 E2 |
E4 E4 | C2 E2 C4 | D4 D3-D/2 C/2 | E4- E3/2 C/2 E2 |
E4 E4 | C2 E2 C4 | D4 D3-D/2 C/2 | E4- E3/2 C/2 E2 |
E4 E4 | C4 C4 | G,2 A,2 A,4 | B,4 B,4 |]
V:3
%%MIDI program 0
x8 | x8 | x8 | x8 |
x8 | x8 | x8 | x8 |
x8 | x8 | x8 | x8 |
x8 | x8 | x8 | x8 |
x8 | x8 | x8 | x8 |
B2 ed Bd ee | c3/2 c/2 Bc/2 e/2 dB A2 | AB de/2 e<d d/2 ec | GB GB G4 |
B2 ed Bd ee | c3/2 c/2 Bc/2 e/2 dB A2 | AB de/2 e<d d/2 ec | GB GB G4 |
V:4
%%MIDI program 0
x8 | x8 | x8 | x8 |
x8 | x8 | x8 | x8 |
x8 | x8 | x8 | x8 |
x8 | x8 | x8 | x8 |
x8 | x8 | x8 | x8 |
B,4 B,4 | A,4 D4 | D4 A,4 | G,4 G,4 |
B,4 B,4 | A,4 D4 | D4 A,4 | G,4 G,4 |


